X: 29827
T: O'Connor's
R: slide
M: 12/8
K: Adorian
[M:6/8] "Am"ABA e2 d|"G"BAB d2 B|"Am"ABA e2 d|"G"B2 G GBG|"Am"A2 e e2 d|"G"BAB d3|
BAB d2 e|"Am"B2 A A3:|"Am"ede a2 b|"Em"a2 g e2 d|"Am"ede a2 b|"Em"a2 g e2 f|
"G"g2 f g2 e|dBA G3|BAB d2 e|"Am"B2 A A3|efe a2 b|"Em"a2 g e2 d|
"Am"ede a2 a|"Em"bag e2 f|"G"gfg age|dBA G2 A|BAB d2 e|"Am"B2 A A3||

